material/.icons/material/note-plus-outline.svg

<svg xmlns="http://www.w3.org/2000/svg" viewBox="0 0 24 24"><path d="M15 10h5.5L15 4.5V10M4 3h12l6 6v10a2 2 0 01-2 2H4a2 2 0 01-2-2V5c0-1.11.89-2 2-2m0 2v14h16v-7h-7V5H4m4 12v-2H6v-2h2v-2h2v2h2v2h-2v2H8z"/></svg>

<?xml version="1.0" encoding="UTF-8"?><!DOCTYPE svg PUBLIC "-//W3C//DTD SVG 1.1//EN" "http://www.w3.org/Graphics/SVG/1.1/DTD/svg11.dtd"><svg xmlns="http://www.w3.org/2000/svg" xmlns:xlink="http://www.w3.org/1999/xlink" version="1.1" id="mdi-note-plus-outline" width="24" height="24" viewBox="0 0 24 24"><path d="M15,10H20.5L15,4.5V10M4,3H16L22,9V19A2,2 0 0,1 20,21H4C2.89,21 2,20.1 2,19V5C2,3.89 2.89,3 4,3M4,5V19H20V12H13V5H4M8,17V15H6V13H8V11H10V13H12V15H10V17H8Z" /></svg>
